X: 10285
T: Dogs Among The Bushes, The
R: reel
M: 4/4
K: Gmajor
dc|:BG (3GGG DG (3GGG|BG (3GGG (ce)dc|BG (3GGG (D=F)EG|A=F (3FFF =fdcA:|
G2 gf gagf|dg ~g2 bga=f|d=f{g}fe fgfe|d^f ~f2 af{a}gf|
dg ~g2 gage|dg ~g2 bg{b}ag|bg ~g2 gage|~=f2 ge fdcA||

